X:1
T:Tarentelle
T:Tarentelle
T:Musiques d'enfants Op.65
T:Prokofiev
T:Éditiions du Faistin
T:Éditiions du Faistin
T:Éditiions du Faistin
C:Prokofiev
Z:Éditiions du Faistin
%%score 1 2
L:1/8
Q:1/4=120
M:6/8
K:F
V:1 treble nm="Flûte"
V:2 bass nm="Basson"
V:1
!p! !>!fed fed | fed Ade | f z z f z2 | f3 z z2 | !>!f_e_d fed | f_e_d _Ade | f z z f z2 | %7
!<(! ((f3 f)_a_d'!<)! |!mf! f') z f' _e' z e' | c' z c' (_ag)a |!>(! c' z c' b z b!>)! | _e3 (_d3 | %12
!p! c) z c =B z B | f z f _e z e | =B z B (_B3 | _e3)!<(! z z2!<)! |!mp! !>!_edc edc | _edc Gcd | %18
 _e z z e z2 | (_e3 e2) f | !>!gf_e gfe | gf_e Gef | g z z g z2 |!<(! ((g3 g)b_e'!<)! | %24
!f! g') z g' g z g | b z b (agf | e) z e d z d | f z f edc | B z B AGF | E z e' d'c'b | a z a gfe | %31
 !>!d3 z z2 ||[K:D] (d3 f2) a | (a3 f2) d | (d'3 c'2) (b | e'3 a2) (g | b3 g2) (f | a3 f2) (e | %38
!>(! d3 F2) ^G!>)! |!p! ((A3 A)=GE | D3 F2) A | (a3"_cresc." fad) | (d'3 c'2) (b | e'3) ^e'3 | %44
!f! (f'3 e'2) (f | =a3 g2) (B |"_dim." d3 c2) (c | d3) z z =f ||[K:F] !>!edf edf | edA deg | %50
 f z z f z2 | (f3 z2) f | !>!_e_df edf | _e_d_A cde | f z z f z2 |!<(! ((f3 f)_a_d'!<)! | %56
!mf! f') z f' _e' z e' | c' z c' (_aga | c') z c'"_dim." b z b | _e3 (_d3 |!p! c) z c _c z c | %61
 f z f _e z e | _c z c (B3 | _e3)!<(! z z e!<)! |!mp! !>!dc_e dce | dcG =Bcd | _e z z e z2 | %67
 (_e3 e2) f | !>!gf_e gfe | gf_e"_cresc." G_ef | g z z g z2 | ((g3!<(! g)b_e'!<)! | %72
!f! g') z g' g z g | b z (b agf | e) z e d z d | f z (f edc | B) z (B AGF | E) z (e dcB | %78
 A) z (A GFE | !>!D3) z z2 ||[K:D]"^Poco meno mosso"[Q:3/8=64] z6 | D3 (DFA | d3)!f! c'3 | %83
 d'3 z z2 |] %84
V:2
!p! D,, z z D,, z2 | D,, z z (A,,2 G,, | D,,)A,,F,, D,,A,,F,, | D,,A,,F,, !>!D,, z z | %4
 _D,, z z D,, z2 | _D,, z z (_A,,2 _G,, | _D,,)_A,,F,, D,,A,,F,, |!<(! _D,,_A,,F,, !>!D,, z z!<)! | %8
!mf! _A,, z z A,, z2 | _A,, z z (A,,3 |!>(! _E,,) z z E,, z2!>)! | _E,, z z (E,,F,,G,, | %12
!p! _A,,) z z _E, z2 | _A,, z z _E, z2 | G,, z z (B,,_E,B, | _E3)!<(! (G,,A,,=B,,!<)! | %16
!mp! C,) z z C, z2 | C, z z (G,2 F, | C,)G,_E, C,G,E, | C,G,_E, !>!C, z z | =B,, z z B,, z2 | %21
 =B,, z z (C,2 B,, | _B,,)G,_E, B,,G,E, |!<(! B,,G,_E, B,, z z!<)! |!f! A,, z z A,, z2 | %25
 A,, z z A,, z2 | B,, z z B,, z2 | D, z z (C,B,,A,, | G,,) z z A,, z2 | B,, z z (E,,F,,G,, | %30
 A,,) z z (G,,F,,E,, | !>!D,,3) z z2 ||[K:D] D,F,A, D,F,A, | C,F,A, C,F,A, | B,,D,F, B,,D,F, | %35
 C,E,A, C,E,A, | D,G,B, D,G,B, | D,F,A, D,F,A, |!>(! B,,D,^G, B,,D,G,!>)! |!p! A,,C,E, A,3 | %40
 D,F,A, D,F,A, | C,F,A,"_cresc." C,F,A, | B,,D,F, B,,D,F, | C,E,A, C,^E,^G, |!f! C,=E,^A, C,E,A, | %45
 B,,D,A, B,,D,A, |"_dim." A,,E,G, A,,E,G, | D,F,A, D, z2 ||[K:F] D,, z z D,, z2 | %49
 D,, z z (A,,2 G,, | D,,)A,,F,, D,,A,,F,, | D,,A,,F,, !>!D,, z z | _D,, z z D,, z2 | %53
 _D,, z z (_A,,2 _G,, | _D,,)_A,,F,, D,,A,,F,, |!<(! _D,,_A,,F,, !>!D,, z z!<)! | %56
!mf! _A,, z z A,, z2 | A, z z (B,A,B, | _E) z z"_dim." _E, z2 | _E,, z z (E,,F,,G,, | %60
!p! _A,,) z z _E, z z | _A,, z z _E, z z | G,, z z (B,,_E,B, | _E3)!<(! (G,,A,,=B,,!<)! | %64
!mp! C,) z z C, z2 | C, z z (G,2 F, | C,)G,_E, C,G,E, | C,G,_E, !>!C, z2 | =B,, z z B,, z2 | %69
 =B,, z z"_cresc." (C,2 B,, | _B,,)G,_E, B,,G,E, | B,,G,_E,!<(! !>!B,, z2!<)! |!f! A,, z z A,, z2 | %73
 !>!B, z z A,, z2 | B,, z z B,, z2 | !>!D z z (C,B,,A,, | G,,) z z A,, z2 | B,, z z (E,,F,,G,, | %78
 A,,) z z (G,,F,,E,, | !>!D,,3) z z2 ||[K:D]!f!"^Poco meno mosso" (D3 F,2) (A, | D,3) C,3 | %82
 B,,3 A,,3 | D,,3 z z2 |] %84

